epam-assets/icon-sources/18/ready to2.svg

<svg width="18" height="18" viewBox="0 0 18 18" fill="none" xmlns="http://www.w3.org/2000/svg">
<g id="18/ready to2">
<g id="icon">
<path d="M10.0499 4.05C9.74994 4.35 9.44994 4.5 8.99994 4.5C8.62494 4.5 8.24994 4.35 7.94994 4.05C7.64994 3.75 7.49994 3.375 7.49994 3C7.49994 2.55 7.64994 2.25 7.94994 1.95C8.24994 1.65 8.62494 1.5 8.99994 1.5C9.44994 1.5 9.74994 1.65 10.0499 1.95C10.3499 2.25 10.4999 2.55 10.4999 3C10.4999 3.375 10.3499 3.75 10.0499 4.05Z" fill="#6C6F80"/>
<path d="M11.4749 5.77504C11.6249 5.92504 11.6999 6.07504 11.7749 6.30004L13.8749 12.225L12.4499 12.75L11.3999 9.82504L10.4999 16.5H7.4999L6.2999 7.12504L3.8999 3.67504L5.0999 2.85004L6.8249 5.25004H10.2749C10.7249 5.25004 11.0999 5.40004 11.4749 5.77504Z" fill="#6C6F80"/>
</g>
</g>
</svg>

<svg xmlns="http://www.w3.org/2000/svg" width="18" height="18" fill="none" viewBox="0 0 18 18">
  <path fill="#6C6F80" d="M10.05 4.05c-.3.3-.6.45-1.05.45-.375 0-.75-.15-1.05-.45-.3-.3-.45-.675-.45-1.05 0-.45.15-.75.45-1.05.3-.3.675-.45 1.05-.45.45 0 .75.15 1.05.45.3.3.45.6.45 1.05 0 .375-.15.75-.45 1.05Z"/>
  <path fill="#6C6F80" d="M11.475 5.775c.15.15.225.3.3.525l2.1 5.925-1.425.525-1.05-2.925-.9 6.675h-3L6.3 7.125l-2.4-3.45 1.2-.825 1.725 2.4h3.45c.45 0 .825.15 1.2.525Z"/>
</svg>
